X:90
T:CORNMAN- Cornish Young Man
S:JFSS II, (#6), 1904
Q:1/4=120
L:1/4
M:3/4
K:D
D|DFA|A2(B/=c/)|(dB)A|G2A/B/|=cAA|\
Ad=c|B(A2|A)zA|dAG/ G/|FED|\
BA(B/=c/)|d2D|FGA|BGE|E(D2D)z|]

